X: 1
T: Up Da Stump
R: polka
M: 2/4
L: 1/8
K: Gmaj
|:Bd Bc|dB G2|A>B cB|A>B cc|
Bd Bc|dB G2|Ac FA|1 G2 G>c:|2 G2 G>f||
|:gg gg|a>g fe|de ef|ed Bd|
gg gg|a>g fe|de ef|1 g2 g>d:|2 g2 g>c||

